X: 34
T: Dabianzi yirao li heotao
L: 1/8
M: 2/4
K: E
B2g3/ b/ [I:setbarnb 1]| 
e e c B | 
e G F E/ C/ | 
F4 | 
B2g3/ b/ | 
e e c B | 
e G F E/ C/ | 
B,4 |]

@@@ Tune index: 8908
